X: 2465
T: Ballybay
R: barndance
M: 4/4
K: Gmajor
Bc|dBGA B3c|dBGA BA A2|dBGA B3c|dedc BG G2|
dBGA B3c|dBGA BA A2|dBGA B3c|dedc BG G2||
dgge f3e|dgge fddf|dgge d3e|dedc BG G2|
dgge f3e|dgge fddf|dgge d3e|dedc BGBc||

